X: 2204
T: MISS ROSS
Q: "Strathspey."
R: Strathspey.
%R: strathspey
B: James Kerr "Merry Melodies" v.2 p.23 #204
Z: 2016 John Chambers <jc:trillian.mit.edu>
M: C
L: 1/8
K: Bb
uG |\
vF2uF>uG vF>vGuB>ud | vc>vBud>uB vc>uB(G<B) |\
vF2uF>uG F>GB>g | vf<Bve>ud c2B ::\
e |\
(d<f)(f>g) (fg/a/) ub>ud |
c>Bd>B c>BG>e |\
[1 (d<f)(f>g) (f/g/a) ub>ud | c>Be>d c2B :|\
[2 F>BD>B F>GB>g | f<B e>d c2B |]
